X: 2
T: Spotted Pony
R: barndance
M: 4/4
L: 1/8
K: Dmaj
x8||:"D"f2a2 f4|"G"efed B4|"D"ABde "Bm"fede|"Em"f2a2 "A"e4|
"D"f2a2 f4|"G"efed B4|"D"ABde "Bm"fede|"A"f2e2 "D"d4:|
|:"D"D2DD "A"E2EE|"D"F2FF "G"G4|"D"ABde "Bm"fede|"Em"f2a2 "A"e4|
"D"D2DD "A"E2EE|"D"F2FF "G"G4|"D"ABde fede|"A"f2e2"D"d4:|
